!!!OTL: ES BLIES EIN JAEGER WOL IN SEIN HORN
!!!ARE: Europa, Mitteleuropa, Deutschland
!!!SCT: F0667
!!!YEM: Copyright 1995, estate of Helmut Schaffrath.
**kern
*ICvox
*Ivox
*M6/8
*k[f#c#g#d#]
*E:
{8B
=1
4B
8B
8.A
16c#
8d#
=2
4e
8e
4e}
{8e
=3
4f#
8B
4f#
8B
=4
2g#
8r}
{8G#
=5
8.G#
16G#
8G#
8.c#
16c#
8c#
=6
8.d#
16c#
8d#
4e}
{8e
=7
4f#
8f#
4f#
8f#
=8
[4.g#
4g#]}
{8g#
=9
4f#
8B
8.B
16c#
8B
=10
8.e
16e
8e
4e}
{8e
=11
4e
8d#
8e
8e
8f#
=12
4g#
8g#
4g#}
{8B
=13
4.a
4.a
=14
4.g#
4.g#}
=15
{4.f#
4.f#
=16
4.e}
{4.e
=17
8.e
16e
8e
8.d#
16c#
8d#
=18
4.e}
{4.e
=19
8.e
16e
8e
8.d#
16c#
8d#
=20
4e
4.r}
==
!!!AGN: Staende -, Jaeger - Lied, Liebe
!!!ONB: ESAC (Essen Associative Code) Database: FINK
!!!AMT: compound duple
!!!AIN: vox
!!!EED: Helmut Schaffrath
!!!EEV: 1.0
*-
